build/img/icon-stopwatch.svg

<svg height="35" viewBox="0 0 29 35" width="29" xmlns="http://www.w3.org/2000/svg"><path d="m3.18833 11.6622-1.48642-1.4718c-.807529-.79926-.807529-2.10023 0-2.89998.80754-.79948 2.1216-.79948 2.92913 0l1.58702 1.5712c1.65552-1.14155 3.54274-1.93169 5.52004-2.31087v-2.03903h-1.381c-.38134 0-.69043-.30602-.69043-.6836v-1.77734c0-1.130866.92913-2.05078 2.07143-2.05078h5.5238c1.1423 0 2.0714.919914 2.0714 2.05078v1.77734c0 .37758-.3091.6836-.6904.6836h-1.381v2.03903c1.977.37891 3.8645 1.16932 5.52 2.31087l1.5871-1.5712c.8072-.79948 2.1213-.79948 2.9291 0 .8075.79948.8075 2.10045 0 2.89998l-1.4864 1.4718c2.0603 2.5408 3.1883 5.7056 3.1883 8.9823 0 7.9156-6.5048 14.3555-14.5 14.3555-7.99523 0-14.50000191-6.4399-14.50000191-14.3555 0-3.2767 1.12796191-6.4415 3.18833191-8.9823zm.46634-3.40514c-.26945-.26649-.7072-.26622-.97638 0-.26891.2665-.26891.70015 0 .96665l1.4268 1.41229c.32151-.3268.65865-.63844 1.00929-.93351zm14.29773-6.20628c0-.37704-.3097-.68359-.6905-.68359h-5.5238c-.3808 0-.6905.30655-.6905.68359v1.09375h6.9048zm-4.8334 2.46094v1.84196c.9152-.08491 1.8465-.08491 2.762 0v-1.84196zm13.2027 3.74534c-.2692-.26622-.7072-.26649-.9764 0l-1.4597 1.44543c.3507.29507.6878.60671 1.0093.93351l1.4268-1.41229c.2689-.2665.2689-.70015 0-.96665zm-11.8217 25.37574c7.2338 0 13.119-5.8266 13.119-12.9883 0-3.1592-1.1584-6.203-3.2616-8.5713-.5794-.6524-1.2259-1.2484-1.9215-1.7723-1.7432-1.31324-3.8065-2.17762-5.967-2.49992-.6465-.09586-1.3089-.14473-1.9689-.14473s-1.3224.04887-1.9687.14473c-2.1607.3223-4.22401 1.18668-5.96746 2.49992-.69533.5239-1.34185 1.1199-1.9212 1.7723-2.10325 2.3683-3.26169 5.4121-3.26169 8.5713 0 7.1617 5.88523 12.9883 13.11905 12.9883z"/><path d="m14.5 22.6953c-1.1422 0-2.0714-.9199-2.0714-2.0508 0-.891.5772-1.651 1.3809-1.9333v-4.9026c0-.3776.3091-.6836.6905-.6836s.6905.306.6905.6836v4.9026c.8037.2823 1.3809 1.0423 1.3809 1.9333 0 1.1309-.9291 2.0508-2.0714 2.0508zm0-2.7344c-.3808 0-.6905.3066-.6905.6836 0 .3771.3097.6836.6905.6836.3809 0 .6905-.3065.6905-.6836 0-.377-.3096-.6836-.6905-.6836z"/><path d="m7.14455 13.4326c.01078-.0126.02157-.0251.03371-.0369.01295-.0131.0267-.0248.04046-.0366 1.21696-1.192 2.72037-2.074 4.35188-2.5509.366-.1068.7498.0999.8577.462s-.1009.7423-.4666.8491c-1.2089.3536-2.33656.9645-3.29784 1.7803l.4658.4612c.26945.267.26945.6999 0 .9669-.13485.1335-.31152.2003-.48845.2003-.17667 0-.35333-.0668-.48819-.2003l-.46688-.4622c-1.24933 1.4382-1.99132 3.2086-2.13589 5.0954h.66404c.38138 0 .69048.3063.69048.6836 0 .3776-.3091.6836-.69048.6836h-.66404c.14457 1.8871.88656 3.6572 2.13589 5.0954l.46688-.4622c.26972-.2668.70693-.2668.97664 0 .26972.267.26972.6999 0 .9669l-.46688.4622c1.45272 1.2369 3.24092 1.9715 5.14672 2.1149v-.6577c0-.3776.3091-.6836.6905-.6836s.6905.306.6905.6836v.6574c1.9058-.1431 3.694-.8777 5.1467-2.1146l-.4669-.4622c-.2697-.267-.2697-.6999 0-.9669.2698-.2668.707-.2668.9767 0l.4669.4622c1.2493-1.4382 1.9913-3.2086 2.1359-5.0954h-.6641c-.3814 0-.6905-.306-.6905-.6836s.3091-.6836.6905-.6836h.6641c-.1446-1.8868-.8866-3.6572-2.1359-5.0954l-.4669.4622c-.1349.1335-.3115.2003-.4882.2003-.1769 0-.3536-.0668-.4885-.2003-.2694-.267-.2694-.6999 0-.9669l.4658-.4612c-.9612-.816-2.0889-1.4267-3.2978-1.7803-.3657-.1068-.5745-.487-.4666-.8491s.4914-.5685.8577-.462c1.6313.4767 3.1341 1.3584 4.3508 2.5499.0143.012.0283.0243.0415.0374.0119.0117.0224.024.0332.0363 1.9363 1.9349 3.0022 4.4941 3.0022 7.2127 0 2.7183-1.0659 5.2773-3.0016 7.2119-.0108.0126-.0216.0251-.0338.0369-.0118.012-.0242.0224-.0366.0331-1.9544 1.9167-4.5391 2.972-7.2851 2.972-2.7457 0-5.33042-1.055-7.28452-2.9715-.01268-.0109-.02535-.0216-.03722-.0336-.01187-.0115-.02239-.0241-.03317-.0361-1.9363-1.9349-3.00223-4.4941-3.00223-7.2127 0-2.7184 1.06593-5.2773 3.00169-7.2119z"/><path d="m14.5 11.7578c-.3811 0-.6905-.3063-.6905-.6836s.3094-.6836.6905-.6836.6905.3063.6905.6836-.3094.6836-.6905.6836z"/></svg>

<svg width="29" height="35" viewBox="0 0 29 35" xmlns="http://www.w3.org/2000/svg">
<path d="M3.18833 11.6622L1.70191 10.1904C0.894381 9.39114 0.894381 8.09017 1.70191 7.29042C2.50945 6.49094 3.82351 6.49094 4.63104 7.29042L6.21806 8.86162C7.87358 7.72007 9.7608 6.92993 11.7381 6.55075V4.51172H10.3571C9.97576 4.51172 9.66667 4.2057 9.66667 3.82812V2.05078C9.66667 0.919914 10.5958 0 11.7381 0H17.2619C18.4042 0 19.3333 0.919914 19.3333 2.05078V3.82812C19.3333 4.2057 19.0242 4.51172 18.6429 4.51172H17.2619V6.55075C19.2389 6.92966 21.1264 7.72007 22.7819 8.86162L24.369 7.29042C25.1762 6.49094 26.4903 6.49094 27.2981 7.29042C28.1056 8.0899 28.1056 9.39087 27.2981 10.1904L25.8117 11.6622C27.872 14.203 29 17.3678 29 20.6445C29 28.5601 22.4952 35 14.5 35C6.50477 35 -1.90735e-06 28.5601 -1.90735e-06 20.6445C-1.90735e-06 17.3678 1.12796 14.203 3.18833 11.6622ZM3.65467 8.25706C3.38522 7.99057 2.94747 7.99084 2.67829 8.25706C2.40938 8.52356 2.40938 8.95721 2.67829 9.22371L4.10509 10.636C4.4266 10.3092 4.76374 9.99756 5.11438 9.70249L3.65467 8.25706ZM17.9524 2.05078C17.9524 1.67374 17.6427 1.36719 17.2619 1.36719H11.7381C11.3573 1.36719 11.0476 1.67374 11.0476 2.05078V3.14453H17.9524V2.05078ZM13.119 4.51172V6.35368C14.0342 6.26877 14.9655 6.26877 15.881 6.35368V4.51172H13.119ZM26.3217 8.25706C26.0525 7.99084 25.6145 7.99057 25.3453 8.25706L23.8856 9.70249C24.2363 9.99756 24.5734 10.3092 24.8949 10.636L26.3217 9.22371C26.5906 8.95721 26.5906 8.52356 26.3217 8.25706ZM14.5 33.6328C21.7338 33.6328 27.619 27.8062 27.619 20.6445C27.619 17.4853 26.4606 14.4415 24.3574 12.0732C23.778 11.4208 23.1315 10.8248 22.4359 10.3009C20.6927 8.98766 18.6294 8.12328 16.4689 7.80098C15.8224 7.70512 15.16 7.65625 14.5 7.65625C13.84 7.65625 13.1776 7.70512 12.5313 7.80098C10.3706 8.12328 8.30729 8.98766 6.56384 10.3009C5.86851 10.8248 5.22199 11.4208 4.64264 12.0732C2.53939 14.4415 1.38095 17.4853 1.38095 20.6445C1.38095 27.8062 7.26618 33.6328 14.5 33.6328Z"/>
<path d="M14.5 22.6953C13.3578 22.6953 12.4286 21.7754 12.4286 20.6445C12.4286 19.7535 13.0058 18.9935 13.8095 18.7112V13.8086C13.8095 13.431 14.1186 13.125 14.5 13.125C14.8814 13.125 15.1905 13.431 15.1905 13.8086V18.7112C15.9942 18.9935 16.5714 19.7535 16.5714 20.6445C16.5714 21.7754 15.6423 22.6953 14.5 22.6953ZM14.5 19.9609C14.1192 19.9609 13.8095 20.2675 13.8095 20.6445C13.8095 21.0216 14.1192 21.3281 14.5 21.3281C14.8809 21.3281 15.1905 21.0216 15.1905 20.6445C15.1905 20.2675 14.8809 19.9609 14.5 19.9609Z"/>
<path d="M7.14455 13.4326C7.15533 13.42 7.16612 13.4075 7.17826 13.3957C7.19121 13.3826 7.20496 13.3709 7.21872 13.3591C8.43568 12.1671 9.93909 11.2851 11.5706 10.8082C11.9366 10.7014 12.3204 10.9081 12.4283 11.2702C12.5362 11.6323 12.3274 12.0125 11.9617 12.1193C10.7528 12.4729 9.62514 13.0838 8.66386 13.8996L9.12966 14.3608C9.39911 14.6278 9.39911 15.0607 9.12966 15.3277C8.99481 15.4612 8.81814 15.528 8.64121 15.528C8.46454 15.528 8.28788 15.4612 8.15302 15.3277L7.68614 14.8655C6.43681 16.3037 5.69482 18.0741 5.55025 19.9609H6.21429C6.59567 19.9609 6.90477 20.2672 6.90477 20.6445C6.90477 21.0221 6.59567 21.3281 6.21429 21.3281H5.55025C5.69482 23.2152 6.43681 24.9853 7.68614 26.4235L8.15302 25.9613C8.42274 25.6945 8.85995 25.6945 9.12966 25.9613C9.39938 26.2283 9.39938 26.6612 9.12966 26.9282L8.66278 27.3904C10.1155 28.6273 11.9037 29.3619 13.8095 29.5053V28.8476C13.8095 28.47 14.1186 28.164 14.5 28.164C14.8814 28.164 15.1905 28.47 15.1905 28.8476V29.505C17.0963 29.3619 18.8845 28.6273 20.3372 27.3904L19.8703 26.9282C19.6006 26.6612 19.6006 26.2283 19.8703 25.9613C20.1401 25.6945 20.5773 25.6945 20.847 25.9613L21.3139 26.4235C22.5632 24.9853 23.3052 23.2149 23.4498 21.3281H22.7857C22.4043 21.3281 22.0952 21.0221 22.0952 20.6445C22.0952 20.2669 22.4043 19.9609 22.7857 19.9609H23.4498C23.3052 18.0741 22.5632 16.3037 21.3139 14.8655L20.847 15.3277C20.7121 15.4612 20.5355 15.528 20.3588 15.528C20.1819 15.528 20.0052 15.4612 19.8703 15.3277C19.6009 15.0607 19.6009 14.6278 19.8703 14.3608L20.3361 13.8996C19.3749 13.0836 18.2472 12.4729 17.0383 12.1193C16.6726 12.0125 16.4638 11.6323 16.5717 11.2702C16.6796 10.9081 17.0631 10.7017 17.4294 10.8082C19.0607 11.2849 20.5635 12.1666 21.7802 13.3581C21.7945 13.3701 21.8085 13.3824 21.8217 13.3955C21.8336 13.4072 21.8441 13.4195 21.8549 13.4318C23.7912 15.3667 24.8571 17.9259 24.8571 20.6445C24.8571 23.3628 23.7912 25.9218 21.8555 27.8564C21.8447 27.869 21.8339 27.8815 21.8217 27.8933C21.8099 27.9053 21.7975 27.9157 21.7851 27.9264C19.8307 29.8431 17.246 30.8984 14.5 30.8984C11.7543 30.8984 9.16958 29.8434 7.21548 27.9269C7.2028 27.916 7.19013 27.9053 7.17826 27.8933C7.16639 27.8818 7.15587 27.8692 7.14509 27.8572C5.20879 25.9223 4.14286 23.3631 4.14286 20.6445C4.14286 17.9261 5.20879 15.3672 7.14455 13.4326Z"/>
<path d="M14.5 11.7578C14.1189 11.7578 13.8095 11.4515 13.8095 11.0742C13.8095 10.6969 14.1189 10.3906 14.5 10.3906C14.8811 10.3906 15.1905 10.6969 15.1905 11.0742C15.1905 11.4515 14.8811 11.7578 14.5 11.7578Z"/>
</svg>
